X: 28319
T: Mudgee Schottische
R: barndance
M: 4/4
K: Cmajor
G2 E>F G2 c2|B2 D>E F2 z2|F<AD>E F>GB>A|G2 C<E G2 A2|
G2 E>F G2 c2|B2 D>E F2 z2|F<AD>E F>GB>A|G2 c2 c2 A>B||
c2 c2 F2 F2|A>BA>G E2 E2|G>AG<E D>CE>D|C>CE<G e2 d2|
c2 c2 F2 F2|A>BA>G E2 E2|G>AG<E D>CE>D|C2 c2 B2 c2||

